!!!OTL: A Bhruinnillin Bhéasach, S. 36
!!!id: I0502
**kern
*clefG2
*k[]
*F:
{8f
8g
=1
4a
4ff
8.ee
16cc
=2
4dd
4ee
8.a
16b
=3
4cc
4dd
8.a
16f
=4
4g
4.f
8f
=5
4.f
8r
=6
16ffff
16ffff}
{8.f
16g
=7
4a
4a
8f
8d
=8
4f
4f
8a
8cc
=9
4dd
4dd
8.ff
16ee
=10
8dd
16ee
16dd
4.cc
8cc
=11
4.cc
8r
=12
16gggg
16ffff}
{8.f
16g
=13
4a
4a
8.f
16d
=14
4f
4f
8a
8cc
=15
4dd
4dd
8.ff
16ee
=16
8dd
16ee
16dd
4cc
4cc
=17
4.cc
8r
=18
16aaaa
16ffff}
{8.f
16g
=19
4a
4ff
8.ee
16cc
=20
4dd
4ee
8.a
16b
=21
4cc
4dd
8.a
16f
=22
4g
4.f
8f
=23
4.f}
8r
==
*-
!!!minrhy: 16
!!!meters: 3/4 ]  ZZ[4
!!!cut: A Bhruinnillin Bhéasach, S. 36
!!!reg: Irland
!!!trd: O BOYLE, Sean: 25 Irish Folksongs, Dublin 1976
!!!rhy1: X_X_  X__X__X_.X  X__X__X_.X  X__X__X_.X  X__X__.X_  X__.0_
!!!rhy2: X_.X  X__X__X_X_  X__X__X_X_  X__X__X_.X  X_XXX__.X_  X__.0_
!!!key: I0502  16  F 3/4 ]  ZZ[4
!!!mod: HEPTATONIK LYDISCH]  AMBITUS[10b
!!!kad: 1551
!!!akz: 36521_31665_31665_36521_
!!!fot: 'a__b__b__a__
!!!for: 'a__b__c__av_
!!!fok: 'M__Ma_Ma_M__
!! PHRAS[AUFTAKTIG]
!!!fkt: ???
!! IRISCHE VKL.
!! PR[10] 2K[8] 2G[14] 3K[11] 3G[5] 4A[1] 4Ü[0] 5A[1] 6K[0] 6G[0]
!! 7K[1] 7G[0] 8A[0] MEHR[0] SI[41] ABS[100] SR[22] SP[19]
!! ST[32] 2k[7] 2g[25] 3k[15] 3g[1] 4d[1] 4ü[0] 5d[0] 6k[0] 6g[0]
!! 7k[0] 7g[0] 8d[0] mehr[0] si[49] dm[-8] sr[32] sp[17]
!! 1F[3] 2F[77] 3F[14] 4F[3] LF[0] 2P[3] 3P[0] 4P[0] TRI[0] DF[5] AB[104]
!! TF[0] U3K[0] U3[0] U4[0] U4Ü[0] U5[3] U6K[0] U6[7] U7K[0] U7[0]
!! N1[18] N2K[0] N2[6] N3K[0] N3[13] N4[6] N4Ü[0] N5[14] N6K[0] N6[17]
!!!n7k: 8] N7[0] O1[9] O2K[0] O2[0] O3K[0] O3[0] HÖ[0
